X: 2564
T: Ballykett Courthouse
R: reel
M: 4/4
K: Gmajor
|:c3 d cFAF|DGGF G2 FD|CFAF cFAF|~G2 FG AF ~F2:|
|:Ac ~c2 dcAc|dgga gfde|fefd ~c2 Ac|fefg af ~f2:|
|:d3 e dGBG|EAAG A2 GE|DGBG dGBG|A2 GA BG G2:|
|:Bd d2 edBd|eaab agef|gfge d2 Bd|gfga bg g2:|

